src/img/call_icon_dark.svg

<svg width="21" height="21" viewBox="0 0 21 21" fill="none" xmlns="http://www.w3.org/2000/svg">
<path fill-rule="evenodd" clip-rule="evenodd" d="M13.0566 1.13528C13.8032 0.717772 14.6445 0.499025 15.4999 0.500006C16.2563 0.49888 17.003 0.669365 17.684 0.998624C18.3649 1.32788 18.9623 1.80734 19.4311 2.40088C19.8999 2.99443 20.2279 3.6866 20.3905 4.42528C20.5531 5.16396 20.5459 5.92989 20.3696 6.66542C20.1933 7.40095 19.8525 8.08689 19.3727 8.67161C18.8929 9.25633 18.2867 9.72458 17.5998 10.0411C16.9129 10.3576 16.1631 10.5142 15.4069 10.499C14.6507 10.4838 13.9078 10.2972 13.2341 9.95334L10.4999 10.5L11.0466 7.76584C10.6575 7.00405 10.4706 6.1551 10.5038 5.30034C10.537 4.44559 10.7892 3.61368 11.2362 2.88437C11.6832 2.15506 12.31 1.55279 13.0566 1.13528ZM16.3333 6.33334H17.9999V4.66667H16.3333V3.00001H14.6666V4.66667H12.9999V6.33334H14.6666V8H16.3333V6.33334ZM10.6441 15.3225L12.5891 13.4059C12.7068 13.2886 12.8569 13.2092 13.0201 13.1778C13.1833 13.1465 13.3521 13.1647 13.5049 13.23L18.1633 15.23C18.347 15.3089 18.4962 15.4512 18.5837 15.631C18.6712 15.8107 18.6911 16.016 18.6399 16.2092L17.6716 19.8759C17.6242 20.0591 17.5159 20.2207 17.3644 20.3341C17.2129 20.4476 17.0274 20.5061 16.8383 20.5C12.5753 20.2684 8.54166 18.4963 5.48743 15.5134C2.50537 12.4602 0.733102 8.4282 0.499929 4.1667C0.493941 3.97746 0.552576 3.79182 0.666179 3.64035C0.779781 3.48888 0.941579 3.38061 1.12493 3.33337L4.7916 2.3642C4.98436 2.31416 5.18867 2.3348 5.36752 2.4224C5.54638 2.50999 5.68795 2.65874 5.7666 2.8417L7.7666 7.50003C7.83171 7.65227 7.84999 7.82045 7.81912 7.98312C7.78825 8.14579 7.70962 8.29557 7.59326 8.41337L5.6766 10.3584C6.28907 11.3716 7.01241 12.3135 7.83326 13.1667C8.68631 13.9885 9.6292 14.7117 10.6441 15.3225Z" fill="#E2F8F9"/>
</svg>

<svg fill="none" xmlns="http://www.w3.org/2000/svg" viewBox="0 0 21 21"><path fill-rule="evenodd" clip-rule="evenodd" d="M13 1.1a5 5 0 11.2 8.9l-2.7.5.5-2.7A5 5 0 0113 1zm3.3 5.2H18V4.7h-1.7V3h-1.6v1.7H13v1.6h1.7V8h1.6V6.3zm-5.7 9l2-1.9a.8.8 0 01.9-.2l4.7 2a.8.8 0 01.4 1l-1 3.7a.8.8 0 01-.8.6c-4.2-.2-8.3-2-11.3-5S.7 8.5.5 4.2a.8.8 0 01.6-.9l3.7-1a.8.8 0 011 .5l2 4.7a.8.8 0 01-.2 1l-2 1.9c.7 1 1.4 2 2.2 2.8.9.8 1.8 1.5 2.8 2.1z" fill="#E2F8F9"/></svg>
